X:1
T:Fredriks polka
C:Oknd
R:Polka
Z:2008-10-08
O:Skne
N:Not frn allspelsltarna till Degeberga 2005
M:2/4
L:1/16
K:D
|: B2A2 B2A2 | cccc c2A2 | B2A2 B2A2 | dddd d2A2 | e2ee e4 | d2dd d4 | cccc BBBB | A2A2 A4 :|
|: a2e2 a2e2 | gggg g2e2 | g2e2 g2e2 | ffff f2e2 | a2e2 a2e2 | gggg g2e2 | ffff gggg | a2a2 a4 :|
